!!!!SEGMENT: pl-sa--86-a-ii-26--005_pych-leopold--missa-brevis-in-d-agnus.krn
!!!cenid: 17xx:371
!!!COM: Pych, Leopold
!!!COM-rismID: pe30018039
!!!CDT: <1758->1774
!!!CNT:
!!!OPR: Missa brevis in D
!!!OTL: Agnus
!!!OMV: 005
!!!PDT:
!!!AGN: Sacred; Mass
!!!SMS-siglum: PL-SA
!!!SMS-shelfmark: 86/A II 26
!!!SMS-shelfwork: 001-005 M
!!!SMS-variant:
!!!SMS-altvar:
!!!NIFC-rismSourceID: 1001035464
!!!NIFC-rismChildID: 1001035464
!!!NIFC-islandoraID:
!!!URL-pdf-islandora:
!!!URL-scan: https://bc.bdsandomierz.pl/dlibra/publication/1364/edition/1332/content @EN{Scan in the Sandomierz Diocese Digital Library} @PL{Skany w portalu Cyfrowa Biblioteka Diecezjalna w Sandomierzu}
!!!ONB-nifc: UWAGA: części Mszy: Kyrie, Gloria, Credo, Sanctus, Agnus, Dona
!!!AIN: 1 bass 2 empty 1 organ 2 violn 1 vox
!!!key:
**kern	**fba	**kern	**kern	**kern	**text	**kern	**text	**kern	**kern
*part7	*	*part6	*part5	*part4	*part4	*part3	*part3	*part2	*part1
*staff7	*	*staff6	*staff5	*staff4	*staff4	*staff3	*staff3	*staff2	*staff1
*Iorgan	*	*Ivioln	*Ivioln	*Ibass	*	*Ivox	*	*Iempty	*Iempty
*I"Organo	*	*I"Violino 2do	*I"Violino 1mo	*I"Basso	*	*I"Canto	*	*I"Clarino 2do ex D	*I"Clarino 1mo ex D
*I'Org.fig	*	*I'Vl 2	*I'Vl 1	*I'B	*	*I'S	*	*I'Clno 2	*I'Clno 1
*group4	*	*group3	*group3	*group2	*	*group2	*	*group1	*group1
*clefF4	*	*clefG2	*clefG2	*clefF4	*	*clefC1	*	*clefG2	*clefG2
*	*	*	*	*	*	*	*	*ITrd-1c-2	*ITrd-1c-2
*k[b-]	*	*k[b-]	*k[b-]	*k[b-]	*	*k[b-]	*	*k[b-]	*k[b-]
*d:	*	*d:	*d:	*d:	*	*d:	*	*d:	*d:
*M4/4	*	*M4/4	*M4/4	*M4/4	*	*M4/4	*	*M4/4	*M4/4
*met(c)	*	*met(c)	*met(c)	*met(c)	*	*met(c)	*	*met(c)	*met(c)
=1	=1	=1	=1	=1	=1	=1	=1	=1	=1
*	*	*2\right	*2\right	*2\right	*	*2\right	*	*	*
!	!	!	!	!LO:TX:a:t=P:problem= przy kluczu także 2 kasowniki c- f-&colon;global	!	!	!	!	!
!	!	!LO:TX:a:t=P:problem= przy kluczu także 1 kasownik f-&colon;global	!	!LO:TX:a:t=ʃolo	!	!LO:TX:a:t=P:problem= przy kluczu także 2 kasowniki c- f-&colon;global	!	!	!
!LO:TX:b:t=Agnus	!	!LO:TX:a:t=Ada	!LO:TX:a:t=Adagio	!LO:TX:a:t=Ada	!	!LO:TX:a:t=3	!	!	!
!LO:TX:a:t=Ada	!	!LO:TX:b:t=Agnus	!LO:TX:b:t=Agnus	!LO:TX:b:t=Agnus	!	!LO:TX:b:t=Agnus	!	!LO:TX:a:t=Agnus Dei Tacett	!LO:TX:a:t=Agnus Dei Tacett
8D\L	.	8f/L	8a/L	4.D\	Ag-	0r	.	1ryy	1ryy
8D\	.	8f/	8a/	.	.	.	.	.	.
8D\	.	8f/	8a/	.	.	.	.	.	.
8D\J	.	8f/J	8a/J	8D\	-nus	.	.	.	.
*	*	*	*tremolo	*	*	*	*	*	*
*	*	*	*tremolo	*	*	*	*	*	*
8AA/L	.	8f/L	8a/L	4E\	De-	.	.	.	.
8AA/	.	8f/	8a/	.	.	.	.	.	.
8AA/	.	8e/	8a/	8.A\	-i	.	.	.	.
8AA/J	.	8e/J	8a/J	.	.	.	.	.	.
.	.	.	.	16G\	qui	.	.	.	.
*	*	*	*Xtremolo	*	*	*	*	*	*
=2	=2	=2	=2	=2	=2	=2	=2	=2	=2
4D\	.	8f/	8a/	8F\	tol-	.	.	1ryy	1ryy
.	.	4f/	4dd\	16D\	-lis	.	.	.	.
.	.	.	.	16d\	pec-	.	.	.	.
8r	.	.	.	8d\	-ca-	.	.	.	.
8D\	.	8d/	8f/	8F\	-te	.	.	.	.
!LO:TX:t=P:problem=mixed beam	!	!	!	!	!	!	!	!	!
8A\L	5 3	8d/L	8f/L	8F\	mun-	.	.	.	.
8AA/J	.	8c/J	8e/J	8E\	-di	.	.	.	.
4A\	.	4r	4r	8A\	mi-	.	.	.	.
.	.	.	.	8A\	-se-	.	.	.	.
=3	=3	=3	=3	=3	=3	=3	=3	=3	=3
4B-X`\	.	1r	1r	4B-X\	-re-	1r	.	1ryy	1ryy
4B-`\	.	.	.	4B-\	-re	.	.	.	.
!LO:TX:a:t=P:2\right&colon;global:problem	!	!	!	!	!	!	!	!	!
2Bn\	5 3	.	.	2Bn\	no-	.	.	.	.
=4	=4	=4	=4	=4	=4	=4	=4	=4	=4
!LO:TX:t=P:problem=mixed beam	!	!	!	!	!	!	!	!	!
8c\L	.	8r	8r	8c\	-bis	8r	.	1ryy	1ryy
8C/	.	8cc\L	8ee\L	4c\	Ag-	4ee\	Ag-	.	.
8C/	.	8cc\	8ee\	.	.	.	.	.	.
8C/J	.	8cc\J	8ee\J	8c\	-nus	8ee\	-nus	.	.
!	!	!	!	!LO:LB:g=original	!	!	!	!	!
*tremolo	*	*	*tremolo	*	*	*	*	*	*
*tremolo	*	*	*	*	*	*	*	*	*
8C/L	.	8cc\L	8ee\L	8c\	De-	8ee\	De-	.	.
8C/	.	8cc\	8ee\	4c\	-i	4ee\	-i	.	.
8C/	.	8cc\	8ee\	.	.	.	.	.	.
8C/J	.	8cc\J	8ee\J	8c\	qui	8ee\	qui	.	.
=5	=5	=5	=5	=5	=5	=5	=5	=5	=5
8C/L	7	8b-X\L	8ee\L	8B-\	tol-	8ee\	tol-	1ryy	1ryy
8C/	.	8b-\	8ee\	4B-\	-lis	4ee\	-lis	.	.
8C/	.	8b-\	8ee\	.	.	.	.	.	.
8C/J	.	8b-\J	8ee\J	8B-\	pec-	8ee\	pec-	.	.
*Xtremolo	*	*	*	*	*	*	*	*	*
*Xtremolo	*	*	*Xtremolo	*	*	*	*	*	*
!	!	!	!LO:TX:t=P:problem=mixed beam	!	!	!	!	!	!
4F\	.	16a/LL	16ff\LL	8A\	-ca-	8ff\	-ca-	.	.
.	.	16f/	16a'/	.	.	.	.	.	.
.	.	16f/	16a'/	8F\	-ta	8cc\	-ta	.	.
.	.	16f/JJ	16a'/JJ	.	.	.	.	.	.
4D\	.	16r	16r	4D\	pec-	4a\	pec-	.	.
.	.	16f/LL	16a'/LL	.	.	.	.	.	.
.	.	16f/	16a'/	.	.	.	.	.	.
.	.	16f/JJ	16a'/JJ	.	.	.	.	.	.
!	!	!LO:LB:g=original	!	!	!	!	!	!	!
=6	=6	=6	=6	=6	=6	=6	=6	=6	=6
4BB-X/	.	16r	16r	4BB-/	-ca-	4a\	-ca-	1ryy	1ryy
.	.	16f/LL	16a'/LL	.	.	.	.	.	.
.	.	16f/	16a'/	.	.	.	.	.	.
.	.	16f/JJ	16a'/JJ	.	.	.	.	.	.
4BBn/	.	16r	16r	4BBn/	-ta	4a\	-ta	.	.
.	.	16f/LL	16a'/LL	.	.	.	.	.	.
.	.	16f/	16a'/	.	.	.	.	.	.
.	.	16f/JJ	16a'/JJ	.	.	.	.	.	.
!LO:TX:t=P:problem=mixed beam	!	!	!	!	!	!	!	!	!
8C/L	.	16e/LL	16g/LL	8C/	mun-	8g\	mun-	.	.
.	.	16e/	16g/	.	.	.	.	.	.
16c\L	.	16cc/	16cc/	8C/	-di	8g\	-di	.	.
16c\JJ	.	16cc/JJ	16cc/JJ	.	.	.	.	.	.
16G\LL	.	16g/LL	16g/LL	4r	.	4r	.	.	.
16G\	.	16g/	16g/	.	.	.	.	.	.
16E\	.	16e/	16e/	.	.	.	.	.	.
16E\JJ	.	16e/JJ	16e/JJ	.	.	.	.	.	.
!	!	!	!LO:LB:g=original	!	!	!	!	!	!
=7	=7	=7	=7	=7	=7	=7	=7	=7	=7
4C/	.	4c/	8c/	2r	.	4r	.	1ryy	1ryy
.	.	.	4g/	.	.	.	.	.	.
4r	.	4r	.	.	.	8g\	mi-	.	.
.	.	.	8a/	.	.	8a\	-se-	.	.
!	!	!	!	!	!	!LO:TX:a:t=P:problem= 3 razy zapisana sylaba "re"	!	!	!
4G\	.	8g/	8b-/L	8G\	mi-	2b-X\	-re-	.	.
.	.	4d/	8b-/	4D\	-se-	.	.	.	.
8D\L	.	.	8b-/	.	.	.	.	.	.
!LO:TX:b:t=Citiſsime	!	!	!	!	!	!	!	!	!
8D\J	.	8e/	8b-/J	8E\	.	.	.	.	.
!LO:PB:g=original	!	!	!	!	!	!LO:LB:g=original	!	!	!
=8	=8	=8	=8	=8	=8	=8	=8	=8	=8
!LO:TX:t=P:problem=mixed beam	!	!	!	!	!	!	!	!	!
8F\L	.	16f/LL	16a/LL	8F\	-re-	8a\	-re-	1ryy	1ryy
.	.	16f/	16a/	.	.	.	.	.	.
8F\	.	16f/	16a/	8F\	-re	8a\	-re	.	.
.	.	16f/JJ	16a/JJ	.	.	.	.	.	.
*	*	*tremolo	*tremolo	*	*	*	*	*	*
*	*	*tremolo	*	*	*	*	*	*	*
8C/	7	16e/LL	16g/LL	4C/	no-	4g\	no-	.	.
.	.	16e/	16g/	.	.	.	.	.	.
8C/J	.	16e/	16g/	.	.	.	.	.	.
.	.	16e/JJ	16g/JJ	.	.	.	.	.	.
*	*	*	*Xtremolo	*	*	*	*	*	*
*	*	*Xtremolo	*	*	*	*	*	*	*
*	*	*Xtremolo	*Xtremolo	*	*	*	*	*	*
!	!	!LO:TX:t=P:problem=mixed beam	!LO:TX:t=P:problem=mixed beam	!	!	!	!	!	!
8FF/L	.	8f/L	8f/L	4F\	-bis	4f/	-bis	.	.
8FF/	.	16ff\L	16ff\L	.	.	.	.	.	.
.	.	16f/JJ	16f/JJ	.	.	.	.	.	.
!	!	!LO:TX:t=P:problem=mixed beam	!LO:TX:t=P:problem=mixed beam	!	!	!	!	!	!
8FF/	.	8f/L	8f/L	8F\	Ag-	8a/	Ag-	.	.
8FF/J	.	16ff\L	16ff\L	8F\	-nus	8f/	-nus	.	.
.	.	16f/JJ	16f/JJ	.	.	.	.	.	.
=9	=9	=9	=9	=9	=9	=9	=9	=9	=9
!	!	!LO:TX:t=P:problem=mixed beam	!LO:TX:t=P:problem=mixed beam	!	!	!	!	!	!
8BBn/L	7	8g/L	8g/L	4BBn/	De-	4g/	De-	1ryy	1ryy
8BB/	.	16ff\L	16ff\L	.	.	.	.	.	.
.	.	16g/JJ	16g/JJ	.	.	.	.	.	.
!	!	!LO:TX:t=P:problem=mixed beam	!LO:TX:t=P:problem=mixed beam	!	!	!	!	!	!
8BB/	.	8g/L	8g/L	8BB/	-i	8g/	-i	.	.
8BB/J	.	16ff\L	16ff\L	8BB/	qui	8g/	qui	.	.
.	.	16g/JJ	16g/JJ	.	.	.	.	.	.
!	!	!	!	!LO:LB:g=original	!	!	!	!	!
8C/L	.	8g/L	8g/L	4C/	tol-	4g/	tol-	.	.
8C/	.	16cc/L	16cc/L	.	.	.	.	.	.
.	.	16g/JJ	16g/JJ	.	.	.	.	.	.
8E/	.	8g/L	8g/L	8E\	-lis	8g/	-lis	.	.
8E/J	.	16cc/L	16cc/L	8E\	pec-	8g/	pec-	.	.
.	.	16g/JJ	16g/JJ	.	.	.	.	.	.
=10	=10	=10	=10	=10	=10	=10	=10	=10	=10
8F\L	.	16a/LL	16a`/LL	4F\	-ca-	4a\	-ca-	1ryy	1ryy
.	.	16f/	(16f/	.	.	.	.	.	.
8D\	.	16e/	16e/	.	.	.	.	.	.
.	.	16d/JJ	16d/JJ)	.	.	.	.	.	.
!	!	!LO:LB:g=original	!	!	!	!	!	!	!
8D\	.	16a/LL	16a`/LL	8D\	-ta	8a\	-ta	.	.
.	.	16f/	(16f/	.	.	.	.	.	.
8D\J	.	16e/	16e/	8D\	pec-	8a\	pec-	.	.
.	.	16d/JJ	16d/JJ)	.	.	.	.	.	.
8C#X/L	5-	16b-X/LL	16b-`/LL	4C#X/	-ca-	4b-X\	-ca	.	.
.	.	16g/	(16g/	.	.	.	.	.	.
8C#/	.	16f/	16f/	.	.	.	.	.	.
.	.	16e/JJ	16e/JJ)	.	.	.	.	.	.
8C#/	.	16b-/LL	16b-`/LL	4C#/	-ta	4b-\	ta	.	.
.	.	16g/	(16g/	.	.	.	.	.	.
8C#/J	.	16f/	16f/	.	.	.	.	.	.
.	.	16e/JJ	16e/JJ)	.	.	.	.	.	.
=11	=11	=11	=11	=11	=11	=11	=11	=11	=11
!	!	!	!LO:TX:t=P:problem=mixed beam	!	!	!	!	!	!
8AA/L	#	16cc#X/LL	16cc#X\LL	2AA/	mun-	2cc#X\	mun-	1ryy	1ryy
.	.	16e/	16e/	.	.	.	.	.	.
8AA/	.	16cc#/	(16cc#\	.	.	.	.	.	.
.	.	16e/JJ	16e/JJ)	.	.	.	.	.	.
!	!	!	!LO:TX:t=P:problem=mixed beam	!	!	!	!	!	!
8AA/	.	16cc#/LL	(16cc#\LL	.	.	.	.	.	.
.	.	16e/	16e/)	.	.	.	.	.	.
8AA/J	.	16cc#/	16cc#\	.	.	.	.	.	.
.	.	16e/JJ	16e/JJ	.	.	.	.	.	.
!	!	!LO:SIC:s=4dd:v	!	!	!	!	!	!	!
4D\	#	4cc#\	4dd\	4D/	-di	4dd\	-di	.	.
4r	.	4r	4r	4r	.	4r	.	.	.
=||	=||	=||	=||	=||	=||	=||	=||	=||	=||
*-	*-	*-	*-	*-	*-	*-	*-	*-	*-
!!!system-decoration: [(g1)][(g2)][(g3)][(g4)]
!!!ENC: Anna Matuszewska
!!!END: 2020-12-04
!!!ENC: Marta Chmielewska
!!!END: 2020-05-27
!!!YEC: Copyright 2022 Narodowy Instytut Fryderyka Chopina (https://polishscores.org)
!!!YEM: License CC-BY-4.0 (https://creativecommons.org/licenses/by/4.0)
